X:311
T: HABE ICHS NICHT LANG GESAT
N: Z0309
O: Europa, Mitteleuropa, Deutschland, Sachsen
R: Lyrisches Lied, Romanze, Verlassenheit
M: 3/8
L: 1/16
K: G
 | GBd2d2 | ged2z2
ccA2c2 | B2F2G2
GBd2d2 | ged2z2
ccA2c2 | B2F2G2
cAF2D2 | GBd2z2
cAF2D2 | GBd2z2
Gdd2z2 | Gee2z2
dBcABG | AFG2G2

